icons/instagram.svg

<svg width="53" height="53" viewBox="0 0 53 53" fill="none" xmlns="http://www.w3.org/2000/svg">
<path d="M44.7188 0H8.28125C3.70764 0 0 3.70764 0 8.28125V44.7188C0 49.2924 3.70764 53 8.28125 53H44.7188C49.2924 53 53 49.2924 53 44.7188V8.28125C53 3.70764 49.2924 0 44.7188 0Z" fill="#F00073"/>
<path d="M26.4998 15.2375C30.1436 15.2375 30.6404 15.2375 32.1311 15.2375C33.4561 15.2375 34.1186 15.5688 34.6154 15.7344C35.2779 16.0657 35.7748 16.2313 36.2717 16.7282C36.7686 17.225 37.0998 17.7219 37.2654 18.3844C37.4311 18.8813 37.5967 19.5438 37.7623 20.8688C37.7623 22.3594 37.7623 22.6907 37.7623 26.5C37.7623 30.3094 37.7623 30.6407 37.7623 32.1313C37.7623 33.4563 37.4311 34.1188 37.2654 34.6157C36.9342 35.2782 36.7686 35.775 36.2717 36.2719C35.7748 36.7688 35.2779 37.1 34.6154 37.2657C34.1186 37.4313 33.4561 37.5969 32.1311 37.7625C30.6404 37.7625 30.3092 37.7625 26.4998 37.7625C22.6904 37.7625 22.3592 37.7625 20.8686 37.7625C19.5436 37.7625 18.8811 37.4313 18.3842 37.2657C17.7217 36.9344 17.2248 36.7688 16.7279 36.2719C16.2311 35.775 15.8998 35.2782 15.7342 34.6157C15.5686 34.1188 15.4029 33.4563 15.2373 32.1313C15.2373 30.6407 15.2373 30.3094 15.2373 26.5C15.2373 22.6907 15.2373 22.3594 15.2373 20.8688C15.2373 19.5438 15.5686 18.8813 15.7342 18.3844C16.0654 17.7219 16.2311 17.225 16.7279 16.7282C17.2248 16.2313 17.7217 15.9 18.3842 15.7344C18.8811 15.5688 19.5436 15.4032 20.8686 15.2375C22.3592 15.2375 22.8561 15.2375 26.4998 15.2375ZM26.4998 12.7532C22.6904 12.7532 22.3592 12.7532 20.8686 12.7532C19.3779 12.7532 18.3842 13.0844 17.5561 13.4157C16.7279 13.7469 15.8998 14.2438 15.0717 15.0719C14.2436 15.9 13.9123 16.5625 13.4154 17.5563C13.0842 18.3844 12.9186 19.3782 12.7529 20.8688C12.7529 22.3594 12.7529 22.8563 12.7529 26.5C12.7529 30.3094 12.7529 30.6407 12.7529 32.1313C12.7529 33.6219 13.0842 34.6157 13.4154 35.4438C13.7467 36.2719 14.2436 37.1 15.0717 37.9282C15.8998 38.7563 16.5623 39.0875 17.5561 39.5844C18.3842 39.9157 19.3779 40.0813 20.8686 40.2469C22.3592 40.2469 22.8561 40.2469 26.4998 40.2469C30.1436 40.2469 30.6404 40.2469 32.1311 40.2469C33.6217 40.2469 34.6154 39.9157 35.4436 39.5844C36.2717 39.2532 37.0998 38.7563 37.9279 37.9282C38.7561 37.1 39.0873 36.4375 39.5842 35.4438C39.9154 34.6157 40.0811 33.6219 40.2467 32.1313C40.2467 30.6407 40.2467 30.1438 40.2467 26.5C40.2467 22.8563 40.2467 22.3594 40.2467 20.8688C40.2467 19.3782 39.9154 18.3844 39.5842 17.5563C39.2529 16.7282 38.7561 15.9 37.9279 15.0719C37.0998 14.2438 36.4373 13.9125 35.4436 13.4157C34.6154 13.0844 33.6217 12.9188 32.1311 12.7532C30.6404 12.7532 30.3092 12.7532 26.4998 12.7532Z" fill="white"/>
<path d="M26.4998 19.3782C22.5248 19.3782 19.3779 22.525 19.3779 26.5C19.3779 30.475 22.5248 33.6219 26.4998 33.6219C30.4748 33.6219 33.6217 30.475 33.6217 26.5C33.6217 22.525 30.4748 19.3782 26.4998 19.3782ZM26.4998 31.1375C24.0154 31.1375 21.8623 29.15 21.8623 26.5C21.8623 24.0157 23.8498 21.8625 26.4998 21.8625C28.9842 21.8625 31.1373 23.85 31.1373 26.5C31.1373 28.9844 28.9842 31.1375 26.4998 31.1375Z" fill="white"/>
<path d="M33.7873 20.8688C34.702 20.8688 35.4436 20.1273 35.4436 19.2125C35.4436 18.2978 34.702 17.5563 33.7873 17.5563C32.8726 17.5563 32.1311 18.2978 32.1311 19.2125C32.1311 20.1273 32.8726 20.8688 33.7873 20.8688Z" fill="white"/>
</svg>

<svg width="53" height="53" fill="none" xmlns="http://www.w3.org/2000/svg"><path d="M44.719 0H8.28A8.281 8.281 0 0 0 0 8.281V44.72A8.281 8.281 0 0 0 8.281 53H44.72A8.281 8.281 0 0 0 53 44.719V8.28A8.281 8.281 0 0 0 44.719 0Z" fill="#F00073"/><path d="M26.5 15.238h5.631c1.325 0 1.988.33 2.484.496.663.332 1.16.497 1.657.994.497.497.828.994.993 1.656.166.497.332 1.16.497 2.485V32.13c0 1.325-.33 1.988-.497 2.485-.33.662-.496 1.159-.993 1.656-.497.497-.994.828-1.657.994-.496.165-1.159.33-2.484.497H20.87c-1.325 0-1.988-.332-2.485-.497-.662-.332-1.16-.497-1.656-.994-.497-.497-.828-.994-.994-1.656-.165-.497-.331-1.16-.497-2.485V20.87c0-1.325.332-1.988.497-2.485.331-.662.497-1.159.994-1.656.497-.497.994-.828 1.656-.994.497-.165 1.16-.33 2.485-.496h5.63Zm0-2.485h-5.631c-1.491 0-2.485.331-3.313.663a7.23 7.23 0 0 0-2.484 1.656c-.828.828-1.16 1.49-1.657 2.484-.33.828-.496 1.822-.662 3.313V32.13c0 1.49.331 2.485.662 3.313a7.234 7.234 0 0 0 1.657 2.484c.828.828 1.49 1.16 2.484 1.656.828.332 1.822.497 3.313.663H32.13c1.49 0 2.484-.331 3.313-.663a7.231 7.231 0 0 0 2.484-1.656c.828-.828 1.16-1.49 1.656-2.484.331-.828.497-1.822.663-3.313V20.87c0-1.49-.332-2.485-.663-3.313a7.232 7.232 0 0 0-1.656-2.484c-.828-.828-1.49-1.16-2.484-1.656-.829-.332-1.822-.497-3.313-.663H26.5Z" fill="#fff"/><path d="M26.5 19.378c-3.975 0-7.122 3.147-7.122 7.122s3.147 7.122 7.122 7.122 7.122-3.147 7.122-7.122-3.147-7.122-7.122-7.122Zm0 11.76c-2.485 0-4.638-1.988-4.638-4.638 0-2.484 1.988-4.637 4.638-4.637 2.484 0 4.637 1.987 4.637 4.637 0 2.484-2.153 4.637-4.637 4.637ZM33.787 20.869a1.656 1.656 0 1 0 0-3.313 1.656 1.656 0 0 0 0 3.313Z" fill="#fff"/></svg>
